!!!COM: Corelli, Arcangelo
!!!OPR: Sonata da camera
!!!OPS: 4
!!!ONM: 10
!!!OMV: 2
!!!OMD: Allegro
**kern	**fb	**kern	**kern
*part3	*part3	*part2	*part1
*staff3	*	*staff2	*staff1
*I"Violone & Organo	*	*I"Violino II	*I"Violino I
*clefF4	*	*clefG2	*clefG2
*k[]	*	*k[]	*k[]
*M4/4	*	*M4/4	*M4/4
*met(c)	*	*met(c)	*met(c)
=1	=1	=1	=1
!	!	!	!LO:TX:a:t=Allegro
4G	.	2r	16ggLL
.	.	.	16bb
.	.	.	16gg
.	.	.	16ddJJ
4r	.	.	16bLL
.	.	.	16g
.	.	.	16b
.	.	.	16ccJJ
4F#X	6	16ff#XLL	4dd
.	.	16aa	.
.	.	16ff#	.
.	.	16aaJJ	.
4r	.	16ff#LL	4r
.	.	16dd	.
.	.	16ff#	.
.	.	16aaJJ	.
=	=	=	=
4E	.	4gg	16bbLL
.	.	.	16ddd
.	.	.	16bb
.	.	.	16dddJJ
4r	.	4r	16bbLL
.	.	.	16gg
.	.	.	16bb
.	.	.	16aaJJ
4D	#	16ff#XLL	4ddd
.	.	16aa	.
.	.	16ff#	.
.	.	16ddJJ	.
4r	.	16ff#LL	4r
.	.	16aa	.
.	.	16ff#	.
.	.	16aaJJ	.
=	=	=	=
8GGL	.	4bb	16bbLL
.	.	.	16ddd
8AA	.	.	16bb
.	.	.	16dddJJ
8BB	6	2gg	16bbLL
.	.	.	16ddd
8CJ	.	.	16ccc
.	.	.	16bbJJ
8DL	#5| 4	.	4aa
8E	.	.	.
8F#X	6	[4ff#X	4r
8DJ	.	.	.
=	=	=	=
8EL	9	4ff#]	16ggLL
.	.	.	16bb
8F#X	.	.	16gg
.	.	.	16bbJJ
8G	6	2ee	16ggLL
.	.	.	16bb
8AJ	.	.	16aa
.	.	.	16ggJJ
8BL	4	.	4ff#X
8BB	.	.	.
8D	6	[4dd	4r
8BBJ	.	.	.
=	=	=	=
8CL	9	4dd]	16eeLL
.	.	.	16gg
8D	.	.	16ff#X
.	.	.	16ggJJ
8E	6	[4cc	16eeLL
.	.	.	16aa
8CJ	.	.	16gg
.	.	.	16aaJJ
8DL	7 #	4cc]	16ff#LL
.	.	.	16dd
8d	.	.	16ff#
.	.	.	16ddJJ
8e	.	[4b	16ggLL
.	.	.	16g
8GJ	.	.	16b
.	.	.	16gJJ
=	=	=	=
8AL	9	4b]	2cc
8G	.	.	.
8F#X	5	4.a	.
8DJ	.	.	.
8GL	9	.	4.b
8A	.	8d	.
8B	6	[4g	.
8GJ	.	.	8ee
=	=	=	=
8AL	7 #	4g]	8cc#XL
8A	.	.	8aJ
8B	#5|	4f#X	2dd
8F#XJ	.	.	.
8GL	6 5	2e	.
8E	.	.	.
8A	#	.	4cc#Xi
8AAJ	.	.	.
=	=	=	=
4D	#	4d	16ddLL
.	.	.	16cc#X
.	.	.	16dd
.	.	.	16eeJJ
4r	.	4r	16ff#XLL
.	.	.	16ee
.	.	.	16ff#
.	.	.	16ddJJ
8BBL	6	16ddLL	4gg
.	.	16cc	.
8BB	.	16b	.
.	.	16ccJJ	.
8BB	.	16ddLL	4r
.	.	16b	.
8BBJ	.	16cc	.
.	.	16ddJJ	.
=	=	=	=
4C	.	4g	16eeLL
.	.	.	16dd
.	.	.	16ee
.	.	.	16ff#XJJ
4r	.	4r	16ggLL
.	.	.	16ff#
.	.	.	16gg
.	.	.	16eeJJ
8C#XL	6	16eeLL	4aa
.	.	16dd	.
8C#	.	16cc#X	.
.	.	16ddJJ	.
8C#	.	16eeLL	4r
.	.	16cc#	.
8C#J	.	16dd	.
.	.	16eeJJ	.
=	=	=	=
4D	#	4a	16ff#XLL
.	.	.	16ee
.	.	.	16ff#
.	.	.	16ggJJ
4r	.	4r	16aaLL
.	.	.	16gg
.	.	.	16aa
.	.	.	16ff#JJ
8D#XL	6	16ff#XLL	4bb
.	.	16ee	.
8D#	.	16dd#X	.
.	.	16eeJJ	.
8D#	.	16ff#LL	4r
.	.	16dd#	.
8D#J	.	16ee	.
.	.	16ff#JJ	.
=	=	=	=
4.E	.	4b	16ggLL
.	.	.	16ff#X
.	.	.	16gg
.	.	.	16aaJJ
.	.	8r	16bbLL
.	.	.	16aa
8E	.	8gg	16bb
.	.	.	16ggJJ
8AAL	.	8.aaL	8.cccL
8BB	.	.	.
.	.	16ggJk	16bbJk
8C	6 #4|	8ff#XL	8aaL
8AAJ	7	8eeJ	8ggJ
=	=	=	=
8BBL	#	8dd#XL	4ff#X
8B	.	8bJ	.
8G	6	2ee	4gg
8EJ	.	.	.
8AL	#6| 5	.	2ff#Xi
8F#X	.	.	.
8B	#	4dd#Xi	.
8BBJ	.	.	.
=	=	=	=
4E	.	8eeL	16eeLL
.	.	.	16gg
.	.	8bb	16ee
.	.	.	16ggJJ
4r	.	8gg	16eeLL
.	.	.	16gg
.	.	8bbJ	16ee
.	.	.	16ggJJ
8BL	#	4dd#X	16ff#XLL
.	.	.	16bb
8BB	.	.	16ff#
.	.	.	16bbJJ
8D#X	6	4r	16ff#LL
.	.	.	16bb
8BBJ	.	.	16ff#
.	.	.	16bbJJ
=	=	=	=
4E	.	8eeL	16ggLL
.	.	.	16ee
.	.	8bb	16gg
.	.	.	16eeJJ
4r	.	8gg	16ggLL
.	.	.	16ee
.	.	8bbJ	16gg
.	.	.	16eeJJ
8BL	#	4dd#X	16ff#XLL
.	.	.	16bb
8BB	.	.	16ff#
.	.	.	16bbJJ
8D#X	6	4r	16ff#LL
.	.	.	16bb
8BBJ	.	.	16ff#
.	.	.	16bbJJ
=	=	=	=
4E	.	8eeL	16ggLL
.	.	.	16ee
.	.	8bb	16gg
.	.	.	16eeJJ
4r	.	8gg	16ggLL
.	.	.	16ee
.	.	8eeJ	16gg
.	.	.	16eeJJ
8AL	#	4cc#X	16aaLL
.	.	.	16ee
8AA	.	.	16aa
.	.	.	16eeJJ
8C#X	6	4r	16aaLL
.	.	.	16ee
8AAJ	.	.	16aa
.	.	.	16eeJJ
=	=	=	=
4D	.	8aaL	16ff#XLL
.	.	.	16aa
.	.	8a	16ff#
.	.	.	16aaJJ
4r	.	8dd	16ff#LL
.	.	.	16aa
.	.	8ff#XJ	16ff#
.	.	.	16aaJJ
8AL	#	4cc#X	16eeLL
.	.	.	16aa
8AA	.	.	16ee
.	.	.	16aaJJ
8C#X	6	4r	16eeLL
.	.	.	16aa
8AAJ	.	.	16ee
.	.	.	16aaJJ
=	=	=	=
4D	#	8aaL	16ff#XLL
.	.	.	16aa
.	.	8a	16ff#
.	.	.	16aaJJ
4r	.	8dd	16ff#LL
.	.	.	16aa
.	.	8ff#XJ	16ff#
.	.	.	16aaJJ
8F#XL	#	4a#X	16cc#XLL
.	.	.	16ff#
8G#X	.	.	16cc#
.	.	.	16ff#JJ
8A#X	6	4r	16cc#LL
.	.	.	16ff#
8F#J	.	.	16cc#
.	.	.	16ff#JJ
=	=	=	=
4B	.	8ff#XL	16ddLL
.	.	.	16ff#X
.	.	8b	16dd
.	.	.	16ff#JJ
4r	.	8dd	16ddLL
.	.	.	16ff#
.	.	8ff#XiJ	16dd
.	.	.	16ff#JJ
8F#XL	#	4a#X	16cc#XLL
.	.	.	16ff#
8G#X	.	.	16cc#
.	.	.	16ff#JJ
8A#X	6	4r	16cc#LL
.	.	.	16ff#
8F#J	.	.	16cc#
.	.	.	16ff#JJ
=	=	=	=
4B	6	4dd	16ggLL
.	.	.	16aa
.	.	.	16gg
.	.	.	16aaJJ
4A	#6| #	4cc#X	16ff#XLL
.	.	.	16gg
.	.	.	16ff#
.	.	.	16ggJJ
4G	6	4b	16eeLL
.	.	.	16ff#
.	.	.	16ee
.	.	.	16ff#JJ
4F#X	6	4a	16ddLL
.	.	.	16ee
.	.	.	16dd
.	.	.	16eeJJ
=	=	=	=
4E	#6|	4g	16ccLL
.	.	.	16dd
.	.	.	16cc
.	.	.	16ddJJ
4D	6	4f#X	16bLL
.	.	.	16cc
.	.	.	16b
.	.	.	16ccJJ
4C#X	#6|	4e	4a#X
4BB	.	8dL	4b
.	.	8ddJ	.
=	=	=	=
2FF#X	5 #r4	2cc#X	4.b
.	.	.	8a#X
4BB	.	4b	4b
4r	.	4r	4r
=	=	=	=
4G	.	2r	16ggLL
.	.	.	16bb
.	.	.	16gg
.	.	.	16ddJJ
4r	.	.	16bLL
.	.	.	16g
.	.	.	16b
.	.	.	16ccJJ
4F#X	6	16ff#XLL	4dd
.	.	16aa	.
.	.	16ff#	.
.	.	16aaJJ	.
4r	.	16ff#XiLL	4r
.	.	16dd	.
.	.	16ff#	.
.	.	16aaJJ	.
=	=	=	=
4E	5	4gg	16bbLL
.	.	.	16ddd
.	.	.	16bb
.	.	.	16dddJJ
4r	.	4r	16bbLL
.	.	.	16gg
.	.	.	16bb
.	.	.	16cccJJ
4D	#	16ff#XLL	4ddd
.	.	16aa	.
.	.	16ff#	.
.	.	16ddJJ	.
4r	.	16ff#LL	4r
.	.	16aa	.
.	.	16ff#	.
.	.	16aaJJ	.
=	=	=	=
8GGL	.	4bb	16bbLL
.	.	.	16ddd
8AA	.	.	16bb
.	.	.	16dddJJ
8BB	6	2gg	16bbLL
.	.	.	16ddd
8CJ	.	.	16ccc
.	.	.	16bbJJ
8DL	5 4	.	4aa
8E	.	.	.
8F#X	6	[4ff#X	4r
8DJ	.	.	.
=	=	=	=
8EL	9	4ff#]	16ggLL
.	.	.	16bb
8F#X	.	.	16gg
.	.	.	16bbJJ
8G	6	2ee	16ggLL
.	.	.	16bb
8AJ	.	.	16aa
.	.	.	16ggJJ
8BL	#5| 4	.	4ff#X
8BB	.	.	.
8D	6	[4dd	4r
8BBJ	.	.	.
=	=	=	=
8CL	9	4dd]	16eeLL
.	.	.	16gg
8D	.	.	16ff#X
.	.	.	16ggJJ
8E	6	2cc	16eeLL
.	.	.	16aa
8CJ	.	.	16gg
.	.	.	16aaJJ
8DL	7 #	.	16ff#LL
.	.	.	16dd
8d	.	.	16ff#
.	.	.	16ddJJ
8e	.	[4b	16ggLL
.	.	.	16g
8GJ	.	.	16b
.	.	.	16gJJ
=	=	=	=
8AL	9	8bL]	2cc
8G	.	8eJ	.
8F#X	5	4.a	.
8DJ	.	.	.
8GL	9	.	2b
8A	.	8d	.
8B	6	[4g	.
8cJ	.	.	.
=	=	=	=
8dL	5 4	4g]	2a
8D	.	.	.
8F#X	6	4f#X	.
8DJ	.	.	.
4D	4 2	2e	2g
4C#X	5	.	.
=	=	=	=
4D	#	4.d	8f#XL
.	.	.	8ddJ
8r	.	.	4.gg
8B	6	8dd	.
8cL	5	4.ee	.
8B	.	.	8ee
8c	6	.	[4aa
8AJ	.	8ee	.
=	=	=	=
8dL	#	4.ff#X	8aaL]
8c	.	.	8ff#XJ
8d	6	.	4.bb
8BJ	.	8ff#	.
8eL	5	4.gg	.
8d	.	.	8gg
8e	6	.	[4ccc
8cJ	.	8aa	.
=	=	=	=
8dL	7 #	8ff#XL	8cccL]
8d	6	8ddJ	8bbJ
8e	5	2gg	8bbL
8BJ	6	.	(16cccL
.	.	.	16bbJJ)
8cL	6 5	.	2aa
8A	.	.	.
8d	#	4ff#Xi	.
8DJ	.	.	.
=	=	=	=
8GL	.	4.gg	4gg
8A	.	.	.
8B	6	.	4.dd
8BBJ	.	8d	.
8CL	9	4.e	.
8D	.	.	8gL
8E	6	.	8cc
8CJ	.	8e	8eeJ
=	=	=	=
4D	#	4f#X	4a
4r	.	4r	4r
2r;	.	2r;	2r;
=||	=||	=||	=||
*-	*-	*-	*-
!!!system-decoration: [{s1,s2},s3,s4]
!!!YEM: CC BY-NC-SA 4.0; CCARH; DCML
!!!RDF**kern: i = editorial accidental